X:5568
T:Road to Ballymac, The
O:england
R:reel
N:Also in G, #457
M:C|
K:E
B,E~E2 GFEF|GEBE cEBc|eB~B2 ceBc|eGBG FGEC|
B,E~E2 GFEF|GEBE cEBc|eB~B2 ceBG|1 FGEC E2EC:|2 FGEC E2EF||
|:GB~B2 cBGB|ce~e2 f2ef|g2fe ceBc|eGBG FGEF|
GB~B2 cBGB|ce~e2 f2ef|g2fe ceBG|1 FGEC E2EF:|2 FGEC E2EC||
